X:1
T:Corporal Casey's Fancy -- Reel
R:reel
N:AKA Five Mile Chase, Four Hand Reel
N:AKA Parnell's Reel (in the same book)
N:139
B:Ryan's Mammoth Collection
Z:Contributed by Ray Davies,  ray:davies99.freeserve.co.uk
M:2/4
L:1/16
K:G
u((3DEF)"^Segno"|:\
G2BG dGBG | FDAD BDAD | G2BG dGBd |  egfa gedB |
G2BG dGBG | FDAD BDAD | G2BG dGBd |  egfa g2g2 ::
gdBd edBd | gabg fdef | gdBd edBd |  egfa g2g2 |
gabg efge | dedc BGBd | efed edBd |1 egfa g2g2 :|2 egfa gedB "^Segno"|]
